projects/Hood.Development/wwwroot/hood/images/h-white.svg

<svg xmlns="http://www.w3.org/2000/svg" viewBox="0 0 251.6 216"><path d="M139.8.1v86.7h44V.1h67.8v216h-67.8v-74h-44.1v74H108v-18H90v-18H72v-162h18V.1m-36 198H36v-18h18v18zm-36 18H0v-18h18v18zm45-198H45V.1h18v18zm18 198H63v-18h18v18z" fill="#fff"/></svg>

<?xml version="1.0" encoding="utf-8"?>
<!-- Generator: Adobe Illustrator 19.2.1, SVG Export Plug-In . SVG Version: 6.00 Build 0)  -->
<svg version="1.1" id="Layer_1" xmlns="http://www.w3.org/2000/svg" xmlns:xlink="http://www.w3.org/1999/xlink" x="0px" y="0px"
	 viewBox="0 0 251.6 216" style="enable-background:new 0 0 251.6 216;" xml:space="preserve">
<style type="text/css">
	.st0{fill:#FFFFFF;}
</style>
<g>
	<path class="st0" d="M139.8,0.1c0,0.1,0,4.6,0,4.7c0,20.5,0,82,0,82h44v-82c0-2.5,0-4.5,0-4.7h67.8c0,0,0,2.2,0,4.7v211.3
		c0,0-1.9,0-4.7,0h-58.7c-2.5,0-4.4,0-4.4,0v-74h-44.1v74c0,0-1.9,0-4.7,0c-9.2,0-17.8,0-27,0v-18H90c0-5.8,0-12.3,0-18
		c-6,0-12,0-18,0v-9c0-60.1,0-92.9,0-153c6,0,12,0,18,0c0-6,0-12,0-18 M54,198.1H36v-18h18V198.1z M18,216.1H0v-18h18V216.1z
		 M63,18.1H45v-18h18V18.1z M81,216.1H63v-18h18V216.1z"/>
</g>
</svg>
